X: 36581
T: Shady Road To Clamper, The
R: polka
M: 2/4
K: Amajor
|:A>B ce|ae fe|A>B ce|fc ec/B/|
A>B ce|ae fe|f/a/f/e/ ce|1 AF Ac/B/:|2 AF AB||
|:c2 cA|ce fe|c2 ce|c/B/A B2|
c2 cA|ce fe|fa/f/ ec|1 BA AB:|2 BA Ac/B/||

